X:1
T:Merry Christmas Bells Are Ringing
T:Merry Christmas Bells Are Ringing
T:Hermann Kotzschmar (1829-1909)
T:M. E. Waite
T:Public Domain Courtesy of the Cyber Hymnal™
T:Public Domain Courtesy of the Cyber Hymnal™
C:Hermann Kotzschmar (1829-1909)
Z:Public Domain
Z:Courtesy of the Cyber Hymnal™
%%score ( 1 2 ) ( 3 4 ) ( 5 6 )
L:1/8
Q:1/4=57
M:2/4
K:F
V:1 treble 
V:2 treble 
V:3 treble 
V:4 treble 
V:5 bass 
V:6 bass 
V:1
 [FA][CA] (A/d/)[Cc] | [FA][CA] (c/B/)[CG] | ([CE]/[EG]/) ([EG]/[GB]/)!<(! [FA]!<)! (A/c/) | %3
w: 1.~Mer- ry Christ- * mas|bells are ring- * ing,|Ring- * ing * far and *|
w: 2.~Hap- py voic- * es|catch the e- * cho|Of * the * an- gels’ *|
w: 3.~Grace- ful Christ- * mas|greens are wreath- * ing|Col- * umn, * choir and *|
w: 4.~In our souls * let|glad o- be- * dience,|Faith * and * love en- *|
w: 5.~Pre- cious Christ- * mas|gifts are gladden- * ing|Many * a * heart and *|
w: 6.~And have we * no|gifts to of- * fer|To * our * Lord and *|
!>(! [Ec]3!>)! z | [FA][CA] (A/d/)[Cc] | [FA][CA] (c/B/)[CG] | %6
w: near,|An- gel voic- * es|sweet- ly sing- * ing,|
w: song;|Grand old chant, * and|joy- ous car- * ol,|
w: nave;|While their cross- * tipped|boughs say ev- * er,|
w: twine,|Yield- ing Christ- * mas|o- dors sweet- * er|
w: home;|But the “Gift * all|gifts ex- cell- * ing,”|
w: king?|Lord, “our- selves, * our|souls and bo- * dies”|
!<(! [DF] (F/^F/)!<)! ([B,G]/[DB]/) ([CA]/[B,G]/) |!>(! [A,F]3!>)! z | (c/d/e/)[Bc]/ [Af][Ac] | %9
w: Sing- ing * soft * and *|clear;|Glo- * * ry! for the|
w: Ring the * aisles * a- *|long.|Let * * our lips their|
w: “Je- sus * comes * to *|save.”|And * * the spi- cy|
w: Than the * frag- * rant *|pine;|So * * our hearts shall|
w: Christ, Him- * self, * is *|come;|In * * your hearts make|
w: Un- to * Thee * we *|bring.|With * * our lips glad|
 ([GB]/[Bd]/) ([Ac]/[GB]/) [FA]2 | [DG][CA] (c/B/A/)[B,G]/ | [A,F][B,F] [A,F]2 |] %12
w: Lord * is * come,|“Je- sus makes * * the|earth His home.”|
w: hom- * age * pay|To the Sav- * * ior|born to- day.|
w: fir’s * per- * fume|Breathes its wel- * * come:|“Christ is come!”|
w: hom- * age * pay|To the Sav- * * ior,|born to- day.|
w: spee- * dy * room,|For the Christ, * * the|Lord is come!|
w: hom- * age * pay|To the Sav- * * ior,|born to- day!|
V:2
 x2 F x | x2 E x | x3 F | x4 | x2 F x | x2 E x | x C x2 | x4 | E3/2 x5/2 | x4 | x2 C3/2 x/ | x4 |] %12
V:3
 [FA][FA] (A/d/)c | [FA][FA] (c/B/)G | (E/G/) ([EG]/d/) [FA] ([FA]/c/) | %3
 ([Ec]!>(!.[eg]/.[df]/.[ce]/.[Bd]/.[Ac]/.[GB]/)!>)! | [FA][FA] (A/d/)c | [FA][FA] (c/B/)G | %6
 [DF] ([DF]/^F/) (G/B/)(A/G/) | ([A,F][fa]/[cg]/ [Af]2) | e>c fc | (B/d/) (c/B/) [FA]2 | %10
 [DG][DA] (c/B/A/)G/ | [CF][CE] [CF]2 |] %12
V:4
 x2 F2 | x2 E2 | E/ x7/2 | x4 | x2 F2 | x2 E2 | x2 D[B,E] | x4 | G2 F2 | E2 x2 | x2 D2 | x4 |] %12
V:5
 [A,C]4 | [F,A,C][C,A,C] [G,B,C][C,B,C] | [G,B,C][C,B,C] [F,A,C][C,A,C] | [C,G,B,C]3 z | [A,C]4 | %5
 [F,A,C][C,A,C] [G,C][C,C] | [D,A,][C,A,] [B,,G,]/G,,/C, | [F,,F,] z ([A,F]/[F,C]/[A,F]) | %8
 (B,/C/B,/)C/ (A,/C/) (A,/C/) | (B,/C/) (B,/C/) ([F,A,][D,D]) | [B,,G,][A,,^F,] G,2 | %11
 [C,A,][C,B,] [F,A,]2 |] %12
V:6
 F,C, G,C, | x4 | x4 | x4 | F,C, F,C, | x4 | x3 C, | x4 | C,2 C,2 | C,2 x2 | x2 (G,,B,,) | x4 |] %12

